;FLAVOR:RepRap
;TIME:4226
;Filament used: 2.64409m
;Layer height: 0.2
;MINX:79.335
;MINY:89.279
;MINZ:0.2
;MAXX:140.665
;MAXY:130.609
;MAXZ:20
;Generated with Cura_SteamEngine 4.12.0
T0
M190 S60
M104 S200
M109 S200
M82 ;absolute extrusion mode
; Ender 3 Custom Start G-code
G92 E0 ; Reset Extruder
G28 ; Home all axes
G1 Z2.0 F3000 ; Move Z Axis up little to prevent scratching of Heat Bed
G1 X0.1 Y20 Z0.3 F5000.0 ; Move to start position
G1 X0.1 Y200.0 Z0.3 F1500.0 E15 ; Draw the first line
G1 X0.4 Y200.0 Z0.3 F5000.0 ; Move to side a little
G1 X0.4 Y20 Z0.3 F1500.0 E30 ; Draw the second line
G92 E0 ; Reset Extruder
G1 Z2.0 F3000 ; Move Z Axis up little to prevent scratching of Heat Bed
G1 X5 Y20 Z0.3 F5000.0 ; Move over to prevent blob squish
M83 ;relative extrusion mode
G1 F1500 E-6.5
;LAYER_COUNT:100
;LAYER:0
M107
;MESH:CAM_foxeer-cam_holder.ply
G0 F6000 X86.987 Y112.884 Z0.2
;TYPE:WALL-INNER
G1 F1500 E6.5
G1 F1200 X87.282 Y112.768 E0.01054
G1 X87.552 Y112.628 E0.01012
G1 X87.81 Y112.461 E0.01022
G1 X88.051 Y112.268 E0.01027
G1 X88.274 Y112.053 E0.0103
G1 X88.472 Y111.815 E0.0103
G1 X88.646 Y111.56 E0.01027
G1 X88.793 Y111.29 E0.01022
G1 X88.913 Y111.004 E0.01032
G1 X89.005 Y110.709 E0.01028
G1 X89.066 Y110.407 E0.01025
G1 X89.097 Y110.098 E0.01033
G1 X89.097 Y109.789 E0.01028
G1 X89.066 Y109.481 E0.0103
G1 X89.005 Y109.179 E0.01025
G1 X88.913 Y108.884 E0.01028
G1 X88.793 Y108.599 E0.01029
G1 X88.646 Y108.326 E0.01031
G1 X88.471 Y108.071 E0.01029
G1 X88.274 Y107.834 E0.01025
G1 X88.05 Y107.618 E0.01035
G1 X87.809 Y107.426 E0.01025
G1 X87.552 Y107.259 E0.01019
G1 X87.274 Y107.117 E0.01038
G1 X86.987 Y107.005 E0.01025
G1 X86.69 Y106.922 E0.01026
G1 X86.385 Y106.867 E0.01031
G1 X86.077 Y106.845 E0.01027
G1 X85.769 Y106.852 E0.01025
G1 X85.461 Y106.891 E0.01033
G1 X85.16 Y106.959 E0.01026
G1 X84.868 Y107.058 E0.01025
G1 X84.585 Y107.184 E0.0103
G1 X84.318 Y107.34 E0.01029
G1 X84.068 Y107.519 E0.01023
G1 X83.834 Y107.725 E0.01037
G1 X83.625 Y107.952 E0.01026
G1 X83.439 Y108.197 E0.01023
G1 X83.276 Y108.46 E0.01029
G1 X83.143 Y108.74 E0.01031
G1 X83.037 Y109.03 E0.01027
G1 X82.962 Y109.329 E0.01025
G1 X82.914 Y109.635 E0.0103
G1 X82.9 Y109.944 E0.01029
G1 X82.915 Y110.254 E0.01032
G1 X82.964 Y110.567 E0.01054
G1 X83.037 Y110.859 E0.01001
G1 X83.146 Y111.156 E0.01052
G1 X83.277 Y111.427 E0.01001
G1 X83.439 Y111.69 E0.01027
G1 X83.625 Y111.936 E0.01026
G1 X83.835 Y112.164 E0.01031
G1 X84.067 Y112.368 E0.01028
G1 X84.326 Y112.553 E0.01059
G1 X84.593 Y112.707 E0.01025
G1 X84.877 Y112.833 E0.01033
G1 X85.162 Y112.929 E0.01
G1 X85.471 Y112.999 E0.01054
G1 X85.777 Y113.035 E0.01025
G1 X86.086 Y113.043 E0.01028
G1 X86.395 Y113.018 E0.01031
G1 X86.689 Y112.967 E0.00992
G1 X86.987 Y112.884 E0.01029
G0 F6000 X86.86 Y112.504
;TYPE:WALL-OUTER
G1 F1200 X87.117 Y112.403 E0.00918
G1 X87.351 Y112.282 E0.00876
G1 X87.576 Y112.136 E0.00892
G1 X87.786 Y111.968 E0.00894
G1 X87.98 Y111.78 E0.00899
G1 X88.152 Y111.574 E0.00893
G1 X88.304 Y111.351 E0.00898
G1 X88.432 Y111.116 E0.0089
G1 X88.537 Y110.867 E0.00899
G1 X88.617 Y110.61 E0.00895
G1 X88.67 Y110.347 E0.00892
G1 X88.697 Y110.078 E0.00899
G1 X88.697 Y109.809 E0.00895
G1 X88.67 Y109.541 E0.00896
G1 X88.617 Y109.278 E0.00892
G1 X88.537 Y109.021 E0.00895
G1 X88.432 Y108.772 E0.00899
G1 X88.304 Y108.535 E0.00896
G1 X88.152 Y108.313 E0.00895
G1 X87.98 Y108.107 E0.00893
G1 X87.786 Y107.919 E0.00899
G1 X87.575 Y107.751 E0.00897
G1 X87.351 Y107.606 E0.00887
G1 X87.11 Y107.482 E0.00901
G1 X86.86 Y107.385 E0.00892
G1 X86.6 Y107.312 E0.00898
G1 X86.335 Y107.264 E0.00896
G1 X86.067 Y107.245 E0.00894
G1 X85.799 Y107.251 E0.00892
G1 X85.53 Y107.285 E0.00902
G1 X85.269 Y107.344 E0.0089
G1 X85.014 Y107.431 E0.00896
G1 X84.767 Y107.541 E0.00899
G1 X84.535 Y107.676 E0.00893
G1 X84.317 Y107.832 E0.00892
G1 X84.114 Y108.011 E0.009
G1 X83.932 Y108.209 E0.00894
G1 X83.769 Y108.424 E0.00897
G1 X83.628 Y108.652 E0.00892
G1 X83.512 Y108.895 E0.00896
G1 X83.42 Y109.148 E0.00895
G1 X83.354 Y109.409 E0.00895
G1 X83.313 Y109.675 E0.00895
G1 X83.3 Y109.944 E0.00896
G1 X83.313 Y110.213 E0.00896
G1 X83.356 Y110.487 E0.00922
G1 X83.42 Y110.741 E0.00871
G1 X83.515 Y111 E0.00918
G1 X83.628 Y111.235 E0.00867
G1 X83.769 Y111.464 E0.00894
G1 X83.932 Y111.679 E0.00897
G1 X84.115 Y111.877 E0.00897
G1 X84.316 Y112.054 E0.00891
G1 X84.543 Y112.216 E0.00928
G1 X84.775 Y112.35 E0.00891
G1 X85.022 Y112.46 E0.00899
G1 X85.27 Y112.543 E0.0087
G1 X85.539 Y112.604 E0.00917
G1 X85.806 Y112.636 E0.00894
G1 X86.075 Y112.643 E0.00895
G1 X86.344 Y112.621 E0.00898
G1 X86.601 Y112.576 E0.00868
G1 X86.86 Y112.504 E0.00894
G0 F6000 X86.999 Y112.921
G1 F1500 E-6.5
G0 F6000 X87.922 Y112.616
G0 X87.143 Y111.379
G0 X132.925 Y111.431
G0 X132.222 Y112.714
G0 X133.471 Y112.999
;TYPE:WALL-INNER
G1 F1500 E6.5
G1 F1200 X133.777 Y113.035 E0.01025
G1 X134.086 Y113.043 E0.01028
G1 X134.395 Y113.018 E0.01031
G1 X134.689 Y112.967 E0.00992
G1 X134.987 Y112.884 E0.01029
G1 X135.282 Y112.768 E0.01054
G1 X135.552 Y112.628 E0.01012
G1 X135.81 Y112.461 E0.01022
G1 X136.051 Y112.268 E0.01027
G1 X136.274 Y112.053 E0.0103
G1 X136.472 Y111.815 E0.0103
G1 X136.646 Y111.56 E0.01027
G1 X136.793 Y111.29 E0.01022
G1 X136.913 Y111.004 E0.01032
G1 X137.005 Y110.709 E0.01028
G1 X137.066 Y110.407 E0.01025
G1 X137.097 Y110.098 E0.01033
G1 X137.097 Y109.789 E0.01028
G1 X137.066 Y109.481 E0.0103
G1 X137.005 Y109.179 E0.01025
G1 X136.913 Y108.884 E0.01028
G1 X136.793 Y108.599 E0.01029
G1 X136.646 Y108.326 E0.01031
G1 X136.471 Y108.071 E0.01029
G1 X136.274 Y107.834 E0.01025
G1 X136.05 Y107.618 E0.01035
G1 X135.809 Y107.426 E0.01025
G1 X135.552 Y107.259 E0.01019
G1 X135.274 Y107.117 E0.01038
G1 X134.987 Y107.005 E0.01025
G1 X134.69 Y106.922 E0.01026
G1 X134.385 Y106.867 E0.01031
G1 X134.077 Y106.845 E0.01027
G1 X133.769 Y106.852 E0.01025
G1 X133.461 Y106.891 E0.01033
G1 X133.16 Y106.959 E0.01026
G1 X132.868 Y107.058 E0.01025
G1 X132.585 Y107.184 E0.0103
G1 X132.318 Y107.34 E0.01029
G1 X132.068 Y107.519 E0.01023
G1 X131.834 Y107.725 E0.01037
G1 X131.625 Y107.952 E0.01026
G1 X131.439 Y108.197 E0.01023
G1 X131.276 Y108.46 E0.01029
G1 X131.143 Y108.74 E0.01031
G1 X131.037 Y109.03 E0.01027
G1 X130.962 Y109.329 E0.01025
G1 X130.914 Y109.635 E0.0103
G1 X130.9 Y109.944 E0.01029
G1 X130.915 Y110.254 E0.01032
G1 X130.964 Y110.567 E0.01054
G1 X131.037 Y110.859 E0.01001
G1 X131.146 Y111.156 E0.01052
G1 X131.277 Y111.427 E0.01001
G1 X131.439 Y111.69 E0.01027
G1 X131.625 Y111.936 E0.01026
G1 X131.835 Y112.164 E0.01031
G1 X132.067 Y112.368 E0.01028
G1 X132.326 Y112.553 E0.01059
G1 X132.593 Y112.707 E0.01025
G1 X132.877 Y112.833 E0.01033
G1 X133.162 Y112.929 E0.01
G1 X133.471 Y112.999 E0.01054
G0 F6000 X133.539 Y112.604
;TYPE:WALL-OUTER
G1 F1200 X133.806 Y112.636 E0.00894
G1 X134.075 Y112.643 E0.00895
G1 X134.344 Y112.621 E0.00898
G1 X134.601 Y112.576 E0.00868
G1 X134.86 Y112.504 E0.00894
G1 X135.117 Y112.403 E0.00918
G1 X135.351 Y112.282 E0.00876
G1 X135.576 Y112.136 E0.00892
G1 X135.786 Y111.968 E0.00894
G1 X135.98 Y111.78 E0.00899
G1 X136.152 Y111.574 E0.00893
G1 X136.304 Y111.351 E0.00898
G1 X136.432 Y111.116 E0.0089
G1 X136.537 Y110.867 E0.00899
G1 X136.617 Y110.61 E0.00895
G1 X136.67 Y110.347 E0.00892
G1 X136.697 Y110.078 E0.00899
G1 X136.697 Y109.809 E0.00895
G1 X136.67 Y109.541 E0.00896
G1 X136.617 Y109.278 E0.00892
G1 X136.537 Y109.021 E0.00895
G1 X136.432 Y108.772 E0.00899
G1 X136.304 Y108.535 E0.00896
G1 X136.152 Y108.313 E0.00895
G1 X135.98 Y108.107 E0.00893
G1 X135.786 Y107.919 E0.00899
G1 X135.575 Y107.751 E0.00897
G1 X135.351 Y107.606 E0.00887
G1 X135.11 Y107.482 E0.00901
G1 X134.86 Y107.385 E0.00892
G1 X134.6 Y107.312 E0.00898
G1 X134.335 Y107.264 E0.00896
G1 X134.067 Y107.245 E0.00894
G1 X133.799 Y107.251 E0.00892
G1 X133.53 Y107.285 E0.00902
G1 X133.269 Y107.344 E0.0089
G1 X133.014 Y107.431 E0.00896
G1 X132.767 Y107.541 E0.00899
G1 X132.535 Y107.676 E0.00893
G1 X132.317 Y107.832 E0.00892
G1 X132.114 Y108.011 E0.009
G1 X131.932 Y108.209 E0.00894
G1 X131.769 Y108.424 E0.00897
G1 X131.628 Y108.652 E0.00892
G1 X131.512 Y108.895 E0.00896
G1 X131.42 Y109.148 E0.00895
G1 X131.354 Y109.409 E0.00895
G1 X131.313 Y109.675 E0.00895
G1 X131.3 Y109.944 E0.00896
G1 X131.313 Y110.213 E0.00896
G1 X131.356 Y110.487 E0.00922
G1 X131.42 Y110.741 E0.00871
G1 X131.515 Y111 E0.00918
G1 X131.628 Y111.235 E0.00867
G1 X131.769 Y111.464 E0.00894
G1 X131.932 Y111.679 E0.00897
G1 X132.115 Y111.877 E0.00897
G1 X132.316 Y112.054 E0.00891
G1 X132.543 Y112.216 E0.00928
G1 X132.775 Y112.35 E0.00891
G1 X133.022 Y112.46 E0.00899
G1 X133.27 Y112.543 E0.0087
G1 X133.539 Y112.604 E0.00917
G0 F6000 X133.465 Y113.037
G1 F1500 E-6.5
G0 F6000 X134.419 Y113.208
G0 X134.409 Y111.734
G0 X138.865 Y113.208
G0 X137.39 Y113.208
G0 X137.6 Y127.543
;TYPE:WALL-INNER
G1 F1500 E6.5
G1 F1200 X82.401 Y127.542 E1.83593
G1 X82.4 Y92.344 E1.17069
G1 X137.6 Y92.344 E1.83596
G1 X137.6 Y127.543 E1.17072
G0 F6000 X138 Y127.943
;TYPE:WALL-OUTER
G1 F1200 X82.001 Y127.942 E1.86253
G1 X82 Y91.944 E1.1973
G1 X138 Y91.944 E1.86257
G1 X138 Y127.943 E1.19733
G0 F6000 X137.73 Y127.673
G0 X137.209 Y127.432
G0 X137.21 Y127.153
;TYPE:SKIN
G1 F1200 X82.791 Y127.152 E1.80998
G1 X82.791 Y111.315 E0.52674
G1 X82.934 Y111.614 E0.01102
G1 X83.117 Y111.91 E0.01157
G1 X83.325 Y112.186 E0.01149
G1 X83.562 Y112.443 E0.01163
G1 X83.825 Y112.674 E0.01164
G1 X84.115 Y112.881 E0.01185
G1 X84.415 Y113.055 E0.01153
G1 X84.735 Y113.197 E0.01164
G1 X85.057 Y113.305 E0.0113
G1 X85.405 Y113.384 E0.01187
G1 X85.749 Y113.425 E0.01152
G1 X86.096 Y113.433 E0.01154
G1 X86.444 Y113.406 E0.01161
G1 X86.775 Y113.348 E0.01118
G1 X87.111 Y113.254 E0.0116
G1 X87.444 Y113.123 E0.0119
G1 X87.749 Y112.965 E0.01142
G1 X88.038 Y112.777 E0.01147
G1 X88.309 Y112.561 E0.01153
G1 X88.56 Y112.319 E0.0116
G1 X88.784 Y112.051 E0.01162
G1 X88.979 Y111.763 E0.01157
G1 X89.145 Y111.459 E0.01152
G1 X89.28 Y111.138 E0.01158
G1 X89.383 Y110.806 E0.01156
G1 X89.452 Y110.465 E0.01157
G1 X89.487 Y110.118 E0.0116
G1 X89.487 Y109.769 E0.01161
G1 X89.452 Y109.423 E0.01157
G1 X89.383 Y109.082 E0.01157
G1 X89.28 Y108.75 E0.01156
G1 X89.146 Y108.431 E0.01151
G1 X88.979 Y108.123 E0.01165
G1 X88.783 Y107.835 E0.01159
G1 X88.56 Y107.568 E0.01157
G1 X88.307 Y107.324 E0.01169
G1 X88.037 Y107.11 E0.01146
G1 X87.747 Y106.921 E0.01151
G1 X87.434 Y106.76 E0.01171
G1 X87.11 Y106.635 E0.01155
G1 X86.778 Y106.542 E0.01147
G1 X86.434 Y106.479 E0.01163
G1 X86.087 Y106.455 E0.01157
G1 X85.74 Y106.462 E0.01154
G1 X85.393 Y106.507 E0.01164
G1 X85.054 Y106.583 E0.01156
G1 X84.726 Y106.695 E0.01153
G1 X84.407 Y106.837 E0.01161
G1 X84.106 Y107.012 E0.01158
G1 X83.825 Y107.213 E0.01149
G1 X83.561 Y107.446 E0.01171
G1 X83.325 Y107.702 E0.01158
G1 X83.117 Y107.976 E0.01144
G1 X82.933 Y108.273 E0.01162
G1 X82.79 Y108.574 E0.01108
G1 X82.79 Y92.734 E0.52684
G1 X137.21 Y92.734 E1.81002
G1 X137.21 Y108.583 E0.52714
G1 X137.146 Y108.431 E0.00549
G1 X136.979 Y108.123 E0.01165
G1 X136.783 Y107.835 E0.01159
G1 X136.56 Y107.568 E0.01157
G1 X136.307 Y107.324 E0.01169
G1 X136.037 Y107.11 E0.01146
G1 X135.747 Y106.921 E0.01151
G1 X135.434 Y106.76 E0.01171
G1 X135.11 Y106.635 E0.01155
G1 X134.778 Y106.542 E0.01147
G1 X134.434 Y106.479 E0.01163
G1 X134.087 Y106.455 E0.01157
G1 X133.74 Y106.462 E0.01154
G1 X133.393 Y106.507 E0.01164
G1 X133.054 Y106.583 E0.01156
G1 X132.726 Y106.695 E0.01153
G1 X132.407 Y106.837 E0.01161
G1 X132.106 Y107.012 E0.01158
G1 X131.825 Y107.213 E0.01149
G1 X131.561 Y107.446 E0.01171
G1 X131.325 Y107.702 E0.01158
G1 X131.117 Y107.976 E0.01144
G1 X130.933 Y108.273 E0.01162
G1 X130.783 Y108.59 E0.01166
G1 X130.664 Y108.915 E0.01151
G1 X130.58 Y109.251 E0.01152
G1 X130.526 Y109.596 E0.01161
G1 X130.51 Y109.944 E0.01159
G1 X130.527 Y110.293 E0.01162
G1 X130.582 Y110.645 E0.01185
G1 X130.664 Y110.974 E0.01128
G1 X130.787 Y111.308 E0.01184
G1 X130.934 Y111.614 E0.01129
G1 X131.117 Y111.91 E0.01157
G1 X131.325 Y112.186 E0.01149
G1 X131.562 Y112.443 E0.01163
G1 X131.825 Y112.674 E0.01164
G1 X132.115 Y112.881 E0.01185
G1 X132.415 Y113.055 E0.01153
G1 X132.735 Y113.197 E0.01164
G1 X133.057 Y113.305 E0.0113
G1 X133.405 Y113.384 E0.01187
G1 X133.749 Y113.425 E0.01152
G1 X134.096 Y113.433 E0.01154
G1 X134.444 Y113.406 E0.01161
G1 X134.775 Y113.348 E0.01118
G1 X135.111 Y113.254 E0.0116
G1 X135.444 Y113.123 E0.0119
G1 X135.749 Y112.965 E0.01142
G1 X136.038 Y112.777 E0.01147
G1 X136.309 Y112.561 E0.01153
G1 X136.56 Y112.319 E0.0116
G1 X136.784 Y112.051 E0.01162
G1 X136.979 Y111.763 E0.01157
G1 X137.145 Y111.459 E0.01152
G1 X137.21 Y111.304 E0.00559
G1 X137.21 Y127.153 E0.52714
G1 F1500 E-6.5
G0 F6000 X137.209 Y127.432
G0 X137.49 Y93.491
G1 F1500 E6.5
G0 F6000 X137.049 Y93.491
G1 F1200 X136.451 Y92.893 E0.02813
G0 F6000 X135.885 Y92.893
G1 F1200 X137.049 Y94.057 E0.05475
G0 F6000 X137.049 Y94.622
G1 F1200 X135.319 Y92.893 E0.08135
G0 F6000 X134.754 Y92.893
G1 F1200 X137.049 Y95.188 E0.10795
G0 F6000 X137.049 Y95.754
G1 F1200 X134.188 Y92.893 E0.13457
G0 F6000 X133.622 Y92.893
G1 F1200 X137.049 Y96.319 E0.16117
G0 F6000 X137.049 Y96.885
G1 F1200 X133.056 Y92.893 E0.18779
G0 F6000 X132.491 Y92.893
G1 F1200 X137.049 Y97.451 E0.21439
G0 F6000 X137.049 Y98.017
G1 F1200 X131.925 Y92.893 E0.24102
G0 F6000 X131.359 Y92.893
G1 F1200 X137.049 Y98.582 E0.26762
G0 F6000 X137.049 Y99.148
G1 F1200 X130.794 Y92.893 E0.29422
G0 F6000 X130.228 Y92.893
G1 F1200 X137.049 Y99.714 E0.32084
G0 F6000 X137.049 Y100.279
G1 F1200 X129.662 Y92.893 E0.34744
G0 F6000 X129.097 Y92.893
G1 F1200 X137.049 Y100.845 E0.37404
G0 F6000 X137.049 Y101.411
G1 F1200 X128.531 Y92.893 E0.40066
G0 F6000 X127.965 Y92.893
G1 F1200 X137.049 Y101.976 E0.42726
G0 F6000 X137.049 Y102.542
G1 F1200 X127.4 Y92.893 E0.45386
G0 F6000 X126.834 Y92.893
G1 F1200 X137.049 Y103.108 E0.48048
G0 F6000 X137.049 Y103.673
G1 F1200 X126.268 Y92.893 E0.50708
G0 F6000 X125.703 Y92.893
G1 F1200 X137.049 Y104.239 E0.53368
G0 F6000 X137.049 Y104.805
G1 F1200 X125.137 Y92.893 E0.5603
G0 F6000 X124.571 Y92.893
G1 F1200 X137.049 Y105.37 E0.5869
G0 F6000 X137.049 Y105.936
G1 F1200 X124.006 Y92.893 E0.6135
G0 F6000 X123.44 Y92.893
G1 F1200 X137.049 Y106.502 E0.64013
G0 F6000 X137.049 Y107.067
G1 F1200 X122.874 Y92.893 E0.66673
G0 F6000 X122.308 Y92.893
G1 F1200 X137.049 Y107.633 E0.69335
G1 F1500 E-6.5
G0 F6000 X137.49 Y107.633
G0 X137.39 Y107.001
G0 X135.921 Y107.271
G0 X135.281 Y107.001
G1 F1500 E6.5
G0 F6000 X135.441 Y106.591
G1 F1200 X121.743 Y92.893 E0.64431
G0 F6000 X121.177 Y92.893
G1 F1200 X134.637 Y106.353 E0.63312
G0 F6000 X134.014 Y106.295
G1 F1200 X120.611 Y92.893 E0.63041
G0 F6000 X120.046 Y92.893
G1 F1200 X133.486 Y106.333 E0.63218
G0 F6000 X133.014 Y106.427
G1 F1200 X119.48 Y92.893 E0.6366
G0 F6000 X118.914 Y92.893
G1 F1200 X132.598 Y106.576 E0.64363
G0 F6000 X132.217 Y106.761
G1 F1200 X118.349 Y92.893 E0.65231
G0 F6000 X117.783 Y92.893
G1 F1200 X131.871 Y106.981 E0.66266
G0 F6000 X131.558 Y107.234
G1 F1200 X117.217 Y92.893 E0.67456
G0 F6000 X116.652 Y92.893
G1 F1200 X131.276 Y107.517 E0.68787
G0 F6000 X131.025 Y107.832
G1 F1200 X116.086 Y92.893 E0.70268
G0 F6000 X115.52 Y92.893
G1 F1200 X130.804 Y108.176 E0.71889
G0 F6000 X130.623 Y108.561
G1 F1200 X114.955 Y92.893 E0.73697
G0 F6000 X114.389 Y92.893
G1 F1200 X130.481 Y108.985 E0.75692
G0 F6000 X130.386 Y109.455
G1 F1200 X113.823 Y92.893 E0.77905
G0 F6000 X113.258 Y92.893
G1 F1200 X130.35 Y109.986 E0.80398
G0 F6000 X130.415 Y110.616
G1 F1200 X112.692 Y92.893 E0.83364
G0 F6000 X112.126 Y92.893
G1 F1200 X130.672 Y111.439 E0.87235
G0 F6000 X131.068 Y111.248
G0 X132.68 Y112.867
G0 X132.501 Y113.268
G1 F1200 X137.049 Y117.816 E0.21392
G0 F6000 X137.049 Y118.381
G1 F1200 X111.56 Y92.893 E1.1989
G0 F6000 X110.995 Y92.893
G1 F1200 X137.049 Y118.947 E1.2255
G0 F6000 X137.049 Y119.513
G1 F1200 X110.429 Y92.893 E1.25212
G0 F6000 X109.863 Y92.893
G1 F1200 X137.049 Y120.078 E1.27872
G0 F6000 X137.049 Y120.644
G1 F1200 X109.298 Y92.893 E1.30532
G0 F6000 X108.732 Y92.893
G1 F1200 X137.049 Y121.21 E1.33194
G0 F6000 X137.049 Y121.775
G1 F1200 X108.166 Y92.893 E1.35854
G0 F6000 X107.601 Y92.893
G1 F1200 X137.049 Y122.341 E1.38514
